resources/haticons/SVG/follow_the_signs.svg

<!-- Generated by IcoMoon.io -->
<svg version="1.1" xmlns="http://www.w3.org/2000/svg" width="24" height="24" viewBox="0 0 24 24">
<title>follow_the_signs</title>
<path d="M9.516 5.484q0.797 0 1.383-0.586t0.586-1.383q0-0.844-0.586-1.43t-1.383-0.586q-0.844 0-1.43 0.586t-0.586 1.43q0 0.797 0.586 1.383t1.43 0.586zM5.766 8.906l-2.766 14.109h2.109l1.734-8.016 2.156 2.016v6h2.016v-7.547l-2.063-2.063 0.609-3q0.984 1.172 2.391 1.875t3.047 0.703v-1.969q-1.406 0-2.531-0.68t-1.828-1.805l-0.938-1.594q-0.281-0.422-0.727-0.68t-0.961-0.258q-0.375 0-0.75 0.141l-5.25 2.156v4.688h1.969v-3.328zM12.984 2.016v6.984h3.75v14.016h1.5v-14.016h3.75v-6.984h-9zM18 8.016v-1.781h-3.516v-1.5h3.516v-1.734l2.484 2.484z"></path>
</svg>

<svg xmlns="http://www.w3.org/2000/svg" width="24" height="24"><path d="M9.516 5.484q.797 0 1.383-.586t.586-1.383q0-.844-.586-1.43t-1.383-.586q-.844 0-1.43.586T7.5 3.515q0 .797.586 1.383t1.43.586zm-3.75 3.422L3 23.015h2.109l1.734-8.016 2.156 2.016v6h2.016v-7.547l-2.063-2.063.609-3q.984 1.172 2.391 1.875t3.047.703v-1.969q-1.406 0-2.531-.68T10.64 8.529l-.938-1.594q-.281-.422-.727-.68t-.961-.258q-.375 0-.75.141l-5.25 2.156v4.688h1.969V9.654zm7.218-6.89V9h3.75v14.016h1.5V9h3.75V2.016h-9zm5.016 6V6.235h-3.516v-1.5H18V3.001l2.484 2.484z"/></svg>
